modules/hawcons-filled/icons/icon-37-file-xml.svg

<?xml version="1.0" encoding="UTF-8" standalone="no"?>
<svg width="32px" height="32px" viewBox="0 0 32 32" version="1.1" xmlns="http://www.w3.org/2000/svg" xmlns:xlink="http://www.w3.org/1999/xlink" xmlns:sketch="http://www.bohemiancoding.com/sketch/ns">
    <!-- Generator: Sketch 3.0.3 (7891) - http://www.bohemiancoding.com/sketch -->
    <title>icon 37 file xml</title>
    <desc>Created with Sketch.</desc>
    <defs></defs>
    <g id="Page-1" stroke="none" stroke-width="1" fill="none" fill-rule="evenodd" sketch:type="MSPage">
        <g id="icon-37-file-xml" sketch:type="MSArtboardGroup" fill="#929292">
            <path d="M8.00684834,10 C6.34621185,10 5,11.3422643 5,12.9987856 L5,20.0012144 C5,21.6573979 6.33599155,23 8.00684834,23 L24.9931517,23 C26.6537881,23 28,21.6577357 28,20.0012144 L28,12.9987856 C28,11.3426021 26.6640085,10 24.9931517,10 L8.00684834,10 L8.00684834,10 Z M10,16.5 L8,13 L9,13 L10.5,15.625 L12,13 L13,13 L11,16.5 L13,20 L12,20 L10.5,17.375 L9,20 L8,20 L10,16.5 L10,16.5 Z M16.5,16 L15,13 L14.5,13 L14,13 L14,20 L15,20 L15,15 L16,17 L16.5,17 L17,17 L18,15 L18,20 L19,20 L19,13 L18.5,13 L18,13 L16.5,16 L16.5,16 Z M25,19 L25,20 L20,20 L20,13 L21,13 L21,19 L25,19 L25,19 Z" id="file-xml" sketch:type="MSShapeGroup"></path>
        </g>
    </g>
</svg>

<svg width="32" height="32" xmlns="http://www.w3.org/2000/svg"><path d="M8.007 10A3.003 3.003 0 0 0 5 12.999V20A2.996 2.996 0 0 0 8.007 23h16.986A3.003 3.003 0 0 0 28 20.001V13A2.996 2.996 0 0 0 24.993 10H8.007zM10 16.5L8 13h1l1.5 2.625L12 13h1l-2 3.5 2 3.5h-1l-1.5-2.625L9 20H8l2-3.5zm6.5-.5L15 13h-1v7h1v-5l1 2h1l1-2v5h1v-7h-1l-1.5 3zm8.5 3v1h-5v-7h1v6h4z" fill="#929292" fill-rule="evenodd"/></svg>
